include/LD/assets/icons/utility/paste.svg

<?xml version="1.0"?><svg xmlns="http://www.w3.org/2000/svg" width="52" height="52" viewBox="0 0 52 52"><g fill="#fff"><path d="m17.5 12h17c0.8 0 1.5-0.7 1.5-1.5v-4.5c0-2.2-1.8-4-4-4h-12c-2.2 0-4 1.8-4 4v4.5c0 0.8 0.7 1.5 1.5 1.5z m26.5-6h-2.5c-0.8 0-1.5 0.7-1.5 1.5v4.5c0 2.2-1.8 4-4 4h-20c-2.2 0-4-1.8-4-4v-4.5c0-0.8-0.7-1.5-1.5-1.5h-2.5c-2.2 0-4 1.8-4 4v36c0 2.2 1.8 4 4 4h36c2.2 0 4-1.8 4-4v-36c0-2.2-1.8-4-4-4z m-6 35c0 0.6-0.4 1-1 1h-22c-0.6 0-1-0.4-1-1v-2c0-0.6 0.4-1 1-1h22c0.6 0 1 0.4 1 1v2z m0-8c0 0.6-0.4 1-1 1h-22c-0.6 0-1-0.4-1-1v-2c0-0.6 0.4-1 1-1h22c0.6 0 1 0.4 1 1v2z m0-8c0 0.6-0.4 1-1 1h-22c-0.6 0-1-0.4-1-1v-2c0-0.6 0.4-1 1-1h22c0.6 0 1 0.4 1 1v2z"></path></g></svg>

<svg xmlns="http://www.w3.org/2000/svg" x="0px" y="0px"
	 width="52px" height="52px" viewBox="0 0 52 52" enable-background="new 0 0 52 52" xml:space="preserve">
<g>
	<path fill="#FFFFFF" d="M17.5,12h17c0.8,0,1.5-0.7,1.5-1.5V6c0-2.2-1.8-4-4-4H20c-2.2,0-4,1.8-4,4v4.5C16,11.3,16.7,12,17.5,12z"/>
	<path fill="#FFFFFF" d="M44,6h-2.5C40.7,6,40,6.7,40,7.5V12c0,2.2-1.8,4-4,4H16c-2.2,0-4-1.8-4-4V7.5C12,6.7,11.3,6,10.5,6H8
		c-2.2,0-4,1.8-4,4v36c0,2.2,1.8,4,4,4h36c2.2,0,4-1.8,4-4V10C48,7.8,46.2,6,44,6z M38,41c0,0.6-0.4,1-1,1H15c-0.6,0-1-0.4-1-1v-2
		c0-0.6,0.4-1,1-1h22c0.6,0,1,0.4,1,1V41z M38,33c0,0.6-0.4,1-1,1H15c-0.6,0-1-0.4-1-1v-2c0-0.6,0.4-1,1-1h22c0.6,0,1,0.4,1,1V33z
		 M38,25c0,0.6-0.4,1-1,1H15c-0.6,0-1-0.4-1-1v-2c0-0.6,0.4-1,1-1h22c0.6,0,1,0.4,1,1V25z"/>
</g>
</svg>
